icons/src/scalable/default/actions/document-open-symbolic.svg

<?xml version="1.0" encoding="UTF-8" standalone="no"?>
<svg
   height="16"
   width="16"
   version="1.1"
   id="svg4"
   sodipodi:docname="document-open-symbolic.svg"
   inkscape:version="1.2 (1:1.2.1+202207142221+cd75a1ee6d)"
   xmlns:inkscape="http://www.inkscape.org/namespaces/inkscape"
   xmlns:sodipodi="http://sodipodi.sourceforge.net/DTD/sodipodi-0.dtd"
   xmlns="http://www.w3.org/2000/svg"
   xmlns:svg="http://www.w3.org/2000/svg">
  <defs
     id="defs8" />
  <sodipodi:namedview
     id="namedview6"
     pagecolor="#ffffff"
     bordercolor="#666666"
     borderopacity="1.0"
     inkscape:showpageshadow="2"
     inkscape:pageopacity="0.0"
     inkscape:pagecheckerboard="0"
     inkscape:deskcolor="#d1d1d1"
     showgrid="true"
     inkscape:zoom="29.5"
     inkscape:cx="5.0508475"
     inkscape:cy="7.1864407"
     inkscape:window-width="1920"
     inkscape:window-height="1043"
     inkscape:window-x="0"
     inkscape:window-y="0"
     inkscape:window-maximized="1"
     inkscape:current-layer="svg4">
    <inkscape:grid
       type="xygrid"
       id="grid562" />
    <inkscape:grid
       dotted="true"
       spacingx="0.5"
       spacingy="0.5"
       empspacing="10"
       type="xygrid"
       id="grid564" />
  </sodipodi:namedview>
  <path
     id="path2"
     style="line-height:normal;font-variant-ligatures:none;font-variant-position:normal;font-variant-caps:normal;font-variant-numeric:normal;font-variant-alternates:normal;font-feature-settings:normal;text-indent:0;text-align:start;text-decoration-line:none;text-decoration-style:solid;text-decoration-color:#000000;text-transform:none;shape-padding:0;isolation:auto;mix-blend-mode:normal;marker:none;fill:#808080"
     d="M 3.9941406 1 C 2.7361419 1.015 1.8154992 0.97071917 1.0625 1.3867188 C 0.67261387 1.6078385 0.37482591 1.9612089 0.22265625 2.3828125 C 0.058656414 2.8208121 1.8503699e-17 3.3430007 0 4 L 0 12 C 0 12.657999 0.057656415 13.179188 0.22265625 13.617188 C 0.38665609 14.056187 0.68550038 14.407235 1.0625 14.615234 C 1.5884995 14.905234 2.2510007 14.956609 3 14.974609 L 3 13.960938 C 2.3340007 13.928938 1.7958748 13.876281 1.546875 13.738281 C 1.3628752 13.638281 1.2571562 13.525625 1.1601562 13.265625 C 1.0631563 13.005625 1 12.591999 1 12 L 1 4 C 1 3.4080006 1.0631563 2.9943747 1.1601562 2.734375 C 1.2581562 2.4743753 1.3628752 2.3627186 1.546875 2.2617188 C 1.9138746 2.058719 2.7418606 2.015 4.0058594 2 L 6.5351562 2 L 8.5566406 4 L 11.992188 4 C 13.256186 4.015 14.083172 4.059719 14.451172 4.2617188 C 14.634172 4.3617186 14.739891 4.4743753 14.837891 4.734375 C 14.935891 4.9943747 15 5.4080006 15 6 L 15 12 C 15 12.591999 14.936844 13.005625 14.839844 13.265625 C 14.741844 13.525625 14.637125 13.637281 14.453125 13.738281 C 14.349125 13.795281 14.18 13.831234 14 13.865234 L 14 7 C 14 5.9006508 13.099349 5 12 5 L 6 5 C 4.9006508 5 4 5.9006508 4 7 L 4 14 C 4 15.099349 4.9006508 16 6 16 L 12 16 C 12.763503 16 13.430898 15.56533 13.767578 14.931641 L 14 14.912109 C 14.34 14.859109 14.6545 14.772234 14.9375 14.615234 C 15.326885 14.393118 15.623977 14.039124 15.775391 13.617188 C 15.94039 13.179188 16 12.656999 16 12 L 16 6 C 16 5.3420007 15.94039 4.8208121 15.775391 4.3828125 C 15.624228 3.9610365 15.326509 3.6070658 14.9375 3.3847656 C 14.184501 2.968766 13.263858 3.015 12.005859 3 L 8.9667969 3 L 6.9453125 1 L 3.9960938 1 L 3.9941406 1 z M 6 6 L 12 6 C 12.562647 6 13 6.4373525 13 7 L 13 14 C 13 14.562647 12.562647 15 12 15 L 6 15 C 5.4373525 15 5 14.562647 5 14 L 5 7 C 5 6.4373525 5.4373525 6 6 6 z M 6.0078125 7 L 6.0078125 8 L 12.019531 8 L 12.019531 7 L 6.0078125 7 z M 6.0078125 9 L 6.0078125 10 L 12.019531 10 L 12.019531 9 L 6.0078125 9 z M 6 11 L 6 12 L 9 12 L 9 11 L 6 11 z " />
</svg>

<svg height="16" width="16" xmlns="http://www.w3.org/2000/svg">
    <path d="M3.994 1c-1.258.015-2.179-.029-2.932.387a1.878 1.878 0 0 0-.84.996C.058 2.821 0 3.343 0 4v8c0 .658.058 1.179.223 1.617.164.439.463.79.84.998.526.29 1.188.342 1.937.36v-1.014c-.666-.032-1.204-.085-1.453-.223-.184-.1-.29-.212-.387-.472C1.063 13.006 1 12.592 1 12V4c0-.592.063-1.006.16-1.266.098-.26.203-.371.387-.472.367-.203 1.195-.247 2.459-.262h2.53l2.02 2h3.436c1.264.015 2.092.06 2.46.262.183.1.288.212.386.472.098.26.162.674.162 1.266v6c0 .592-.063 1.006-.16 1.266-.098.26-.203.371-.387.472-.104.057-.273.093-.453.127V5H4v11h10v-1.088c.34-.053.654-.14.937-.297a1.88 1.88 0 0 0 .838-.998c.165-.438.225-.96.225-1.617V6c0-.658-.06-1.179-.225-1.617a1.88 1.88 0 0 0-.837-.998c-.753-.416-1.674-.37-2.932-.385H8.967L6.945 1H3.996zM5 6h8v9H5zm1.008 1v1h6.012V7zm0 2v1h6.012V9zM6 11v1h3v-1z" fill="gray" font-family="sans-serif" font-weight="400" overflow="visible" style="line-height:normal;font-variant-ligatures:none;font-variant-position:normal;font-variant-caps:normal;font-variant-numeric:normal;font-variant-alternates:normal;font-feature-settings:normal;text-indent:0;text-align:start;text-decoration-line:none;text-decoration-style:solid;text-decoration-color:#000;text-transform:none;shape-padding:0;isolation:auto;mix-blend-mode:normal;marker:none" white-space="normal" color="#000"/>
</svg>
